X:1 % 3
T:Marschierer
C:traditionell
R:Jodler
B:"(1.) Spielheft fuer Okarina", Zusammenstellung: V. Derschmidt, Herausgeber: Oberoesterreichische Landesarbeitsgemeinschaft fuer Volkslied/Volksmusik/Volkstanz, Linz 1992
M:2/4
L:1/8
K:F
c>c |:\
A2F>F | C2.F.A | B2E>E | C2.E.c |\
B2E>E | C2.E.c |1 (A2FA) | "^_"c2.d.c :|\
               [2 A4- | A ||
